**kern
*I"Melody
*I'Melody
*clefG2
*k[b-e-a-]
*M4/4
*MM128
=1
1r
=2
1r
=3
1r
=4
1r
=5
8b-'L
8g'
8b-'
8g'J
8b-L
8cc'J
4e-'
=6
8e-'L
8c'
8e-'
8c'J
8e-L
8g'J
4f'
=7
8b-'L
8g'
8b-'
8g'J
8b-L
8cc'J
4e-'
=8
8e-'L
8c'
8e-'
8c'J
8e-L
8g'J
4f'
=9
8b-'L
8g'
8b-'
8g'J
8b-L
8cc'J
4e-'
=10
8e-'L
8c'
8e-'
8c'J
8e-L
8g'J
4f'
=11
8b-'L
8g'
8b-'
8g'J
8b-L
8cc'J
4e-'
=12
8e-'L
8c'
8e-'
8c'J
4e-'
8cc'L
8b-'J
=13
4e-'
4r
2r
=14
8e-'L
8c'
8e-'
8c'J
4e-'
8cc'L
8b-'J
=15
4e-'
4r
2r
=16
8e-'L
8c'
8e-'
8c'J
4e-'
8cc'L
8b-'J
=17
4e-'
4r
2r
=18
8e-'L
8c'
8e-'
8c'J
4e-'
8cc'L
8b-'J
=19
4e-'
4r
4r
8cc'L
8b-'J
=20
4e-'
4e-'
4e-'
4r
=21
8r
8c'L
8e-'
8c'J
8.gL
[16fJk
8fL]
8e-J
=22
8dL
8e-J
8b-L
16a-L
16gJJ
2r
=23
8r
8c'L
8e-'
8c'J
8.gL
[16fJk
8fL]
8e-J
=24
8dL
8e-J
8fL
16a-L
16gJJ
2r
=25
8r
8c'L
8e-'
8c'J
8.gL
[16fJk
8fL]
8e-J
=26
8dL
8e-J
8b-L
16a-L
16gJJ
2r
=27
8r
8c'L
8e-'
8c'J
8.gL
[16fJk
8fL]
8e-J
=28
8dL
8e-J
8dL
16B-L
16cJJ
2r
=29
8r
8c'L
8e-'
8c'J
8.gL
[16fJk
8fL]
8e-J
=30
8dL
8e-J
8b-L
16a-L
16gJJ
2r
=31
8r
8c'L
8e-'
8c'J
8.gL
[16fJk
8fL]
8e-J
=32
8dL
8e-J
8fL
16a-L
16gJJ
2r
=33
8r
8c'L
8e-'
8c'J
8.gL
[16fJk
8fL]
8e-J
=34
8dL
8e-J
8b-L
16a-L
16gJJ
2r
=35
8r
8c'L
8e-'
8c'J
8.gL
[16fJk
8fL]
8e-J
=36
8dL
8e-J
8dL
16B-L
16cJJ
4r
8r
8e-'
=37
8.dL
16e-'Jk
8r
8e-'
8.B-L
16e-'Jk
8r
8e-'
=38
8.b-L
16e-'Jk
8r
8a-
16gLL
16fJ
8e-'J
8r
8e-'
=39
8.dL
16e-'Jk
8r
8e-'
8.B-L
16e-'Jk
8r
8e-'
=40
8.b-L
16e-'Jk
8r
8a-
16gLL
16fJ
8g'J
8r
8e-'
=41
8.dL
16e-'Jk
8r
8e-'
8.B-L
16e-'Jk
8r
8e-'
=42
8.b-L
16e-'Jk
8r
8a-
16gLL
16fJ
8e-'J
8r
8b-
=43
4b-
4b-
4b-
4b-
=44
4b-
4a-
4e-
4f
=45
8b-'L
8g'
8b-'
8g'J
8b-L
8cc'J
4e-'
=46
8e-'L
8c'
8e-'
8c'J
8e-L
8g'J
4f'
=47
8b-'L
8g'
8b-'
8g'J
8b-L
8cc'J
4e-'
=48
8e-'L
8c'
8e-'
8c'J
8e-L
8g'J
4f'
=49
8b-'L
8g'
8b-'
8g'J
8b-L
8cc'J
4e-'
=50
8e-'L
8c'
8e-'
8c'J
8e-L
8g'J
4f'
=51
8b-'L
8g'
8b-'
8g'J
8b-L
8cc'J
4e-'
=52
8e-'L
8c'
8e-'
8c'J
4e-'
8cc'L
8b-'J
=53
4e-'
4r
2r
=54
8e-'L
8c'
8e-'
8c'J
4e-'
8cc'L
8b-'J
=55
4e-'
4r
2r
=56
8e-'L
8c'
8e-'
8c'J
4e-'
8cc'L
8b-'J
=57
4e-'
4r
2r
=58
8e-'L
8c'
8e-'
8c'J
4e-'
8cc'L
8b-'J
=59
4e-'
4r
4r
8cc'L
8b-'J
=60
4e-'
4e-'
4e-'
4r
=61
8r
8c'L
8e-'
8c'J
8.gL
[16fJk
8fL]
8e-J
=62
8dL
8e-J
8b-L
16a-L
16gJJ
2r
=63
8r
8c'L
8e-'
8c'J
8.gL
[16fJk
8fL]
8e-J
=64
8dL
8e-J
8fL
16a-L
16gJJ
2r
=65
8r
8c'L
8e-'
8c'J
8.gL
[16fJk
8fL]
8e-J
=66
8dL
8e-J
8b-L
16a-L
16gJJ
2r
=67
8r
8c'L
8e-'
8c'J
8.gL
[16fJk
8fL]
8e-J
=68
8dL
8e-J
8dL
16B-L
16cJJ
4r
8r
8e-'
=69
8.dL
16e-'Jk
8r
8e-'
8.B-L
16e-'Jk
8r
8e-'
=70
8.b-L
16e-'Jk
8r
8a-
16gLL
16fJ
8e-'J
8r
8e-'
=71
8.dL
16e-'Jk
8r
8e-'
8.B-L
16e-'Jk
8r
8e-'
=72
8.b-L
16e-'Jk
8r
8a-
16gLL
16fJ
8g'J
8r
8e-'
=73
8.dL
16e-'Jk
8r
8e-'
8.B-L
16e-'Jk
8r
8e-'
=74
8.b-L
16e-'Jk
8r
8a-
16gLL
16fJ
8e-'J
8r
8b-
=75
4b-
4b-
4b-
4b-
=76
4b-
4a-
4e-
4f
=77
8b-'L
8g'
8b-'
8g'J
8b-L
8cc'J
4e-'
=78
8e-'L
8c'
8e-'
8c'J
8e-L
8g'J
4f'
=79
8b-'L
8g'
8b-'
8g'J
8b-L
8cc'J
4e-'
=80
8e-'L
8c'
8e-'
8c'J
8e-L
8g'J
4f'
=81
8b-'L
8g'
8b-'
8g'J
8b-L
8cc'J
4e-'
=82
8e-'L
8c'
8e-'
8c'J
8e-L
8g'J
4f'
=83
8b-'L
8g'
8b-'
8g'J
8b-L
8cc'J
4e-'
=84
8e-'L
8c'
8e-'
8c'J
4e-'
8cc'L
8b-'J
=85
4e-'
4r
2r
=86
1r
=87
1r
=88
8e-'L
8c'
8e-'
8c'J
4e-'
4r
=89
1r
=90
2r
4r
8cc'L
8b-'J
=91
4e-'
4r
2r
=92
1r
=93
1r
=94
8b-'L
8g'
8b-'
8g'J
8b-L
8cc'J
4e-'
=95
8e-'L
8c'
8e-'
8c'J
8e-L
8g'J
4f'
=96
8b-'L
8g'
8b-'
8g'J
8b-L
8cc'J
4e-'
=97
8e-'L
8c'
8e-'
8c'J
8e-L
8g'J
4f'
=98
8b-'L
8g'
8b-'
8g'J
8b-L
8cc'J
4e-'
=99
8e-'L
8c'
8e-'
8c'J
8e-L
8g'J
4f'
=100
8b-'L
8g'
8b-'
8g'J
8b-L
8cc'J
4e-'
=101
8e-'L
8c'
8e-'
8c'J
4e-'
8cc'L
8b-'J
=102
4e-'
8cc'L
8b-'J
4e-'
8cc'L
8b-'J
=103
4e-'
8cc'L
8b-'J
4e-'
8cc'L
8b-'J
=104
4e-'
8cc'L
8b-'J
4e-'
8cc'L
8b-'J
=105
4e-'
8cc'L
8b-'J
4e-'
8cc'L
8b-'J
=106
4e-'
8cc'L
8b-'J
4e-'
8cc'L
8b-'J
=107
4e-'
8cc'L
8b-'J
4e-'
8cc'L
8b-'J
=108
4e-'
8cc'L
8b-'J
4e-'
8cc'L
8b-'J
=109
4e-'
4e-'
4e-'
8cc'L
8b-'J
=110
4e-'
4r
2r
=111
8e-'L
8c'
8e-'
8c'J
4e-'
8cc'L
8b-'J
=112
4e-'
8cc'L
8b-'J
4e-'
4r
=113
8e-'L
8c'
8e-'
8c'J
4e-'
8cc'L
8b-'J
=114
4e-'
8cc'L
8b-'J
4e-'
4r
=115
8e-'L
8c'
8e-'
8c'J
4e-'
8cc'L
8b-'J
=116
4e-'
8cc'L
8b-'J
4e-'
4r
=117
8e-'L
8c'
8e-'
8c'J
4e-'
8cc'L
8b-'J
=118
4e-'
4r
2r
==
*-
